public/icons/03d.svg

<svg version="1.2" xmlns="http://www.w3.org/2000/svg" viewBox="0 0 48 48" width="48" height="48">
	<title>03d-pdf</title>
	<defs>
		<clipPath clipPathUnits="userSpaceOnUse" id="cp1">
			<path d="m0 0h48v48h-48z"/>
		</clipPath>
		<radialGradient id="g1" cx="32.2" cy="31.8" r="28.3" gradientUnits="userSpaceOnUse">
			<stop offset="0" stop-color="#fbb03b"/>
			<stop offset=".2" stop-color="#f7bf3b"/>
			<stop offset=".4" stop-color="#f4ce3c"/>
			<stop offset=".6" stop-color="#f0de3c"/>
			<stop offset=".8" stop-color="#eded3d"/>
		</radialGradient>
		<linearGradient id="g2" x1="-20" y1="22" x2="-20" y2="44" gradientUnits="userSpaceOnUse">
			<stop offset="0" stop-color="#efefef"/>
			<stop offset=".2" stop-color="#ebebeb"/>
			<stop offset=".4" stop-color="#e7e7e7"/>
			<stop offset=".6" stop-color="#e2e2e2"/>
			<stop offset=".8" stop-color="#dedede"/>
		</linearGradient>
	</defs>
	<style>
		.s0 { fill: url(#g1) } 
		.s1 { fill: #f5c23e } 
		.s2 { fill: url(#g2) } 
	</style>
	<g id="Page 1" clip-path="url(#cp1)">
		<path id="Path 1" class="s0" d="m33.8 28.8c-0.9-2.4-2.5-4.5-4.5-6-2.2-1.8-5-2.8-8.1-2.8q-0.7 0-1.5 0.1c0.5-5.8 5.3-10.4 11.3-10.4 6.3 0 11.3 5 11.3 11.3 0 4-2.1 7.6-5.3 9.6-0.9-0.8-2-1.4-3.2-1.8z"/>
		<path id="Path 4" fill-rule="evenodd" class="s1" d="m32.1 5.1v2.1c0 0.6-0.5 1.1-1.1 1.1-0.6 0-1.1-0.5-1.1-1.1v-2.1c0-0.6 0.5-1.1 1.1-1.1 0.6 0 1.1 0.5 1.1 1.1zm14.8 14.8c0.6 0 1.1 0.5 1.1 1.1 0 0.6-0.5 1.1-1.1 1.1h-2.1c-0.6 0-1.1-0.5-1.1-1.1 0-0.6 0.5-1.1 1.1-1.1zm-24.9-9.4c0.4 0.4 0.4 1.1 0 1.5-0.5 0.4-1.1 0.4-1.5 0l-1.5-1.5c-0.5-0.4-0.5-1.1 0-1.5 0.4-0.4 1-0.4 1.5 0zm21 21c0.4 0.4 0.4 1.1 0 1.5-0.4 0.4-1.1 0.4-1.5 0l-1.5-1.5c-0.4-0.4-0.4-1.1 0-1.5 0.4-0.4 1.1-0.4 1.5 0zm0-22.5c0.4 0.4 0.4 1.1 0 1.5l-1.5 1.5c-0.4 0.4-1.1 0.4-1.5 0-0.4-0.4-0.4-1.1 0-1.5l1.5-1.5c0.4-0.4 1.1-0.4 1.5 0z"/>
		<path id="Path 5" class="s2" d="m32.2 30.5c3.3 0.4 5.8 3.3 5.8 6.7 0 3.8-3 6.8-6.6 6.8h-21.5c-4.4-0.3-7.9-4.1-7.9-8.7 0-4.8 3.8-8.6 8.5-8.6q0.8 0 1.5 0.1c2.1-2.9 5.5-4.8 9.2-4.8 5.3 0 9.7 3.6 11 8.5z"/>
	</g>
</svg>

<svg xmlns="http://www.w3.org/2000/svg" width="48" height="48" version="1.
2"><defs><radialGradient id="b" cx="32.2" cy="31.8" r="28.3"
gradientUnits="userSpaceOnUse"><stop offset="0" stop-color="#fbb03b"/><stop
offset=".2" stop-color="#f7bf3b"/><stop offset=".4" stop-color="#f4ce3c"/><stop
offset=".6" stop-color="#f0de3c"/><stop offset=".8" stop-color="#eded3d"/></radialGradient><linearGradient id="c" x1="-20" x2="-20" y1="22" y2="44" gradientUnits="userSpaceOnUse"><stop offset="0" stop-color="#efefef"/><stop offset=".2" stop-color="#ebebeb"/><stop offset=".4" stop-color="#e7e7e7"/><stop offset=".6" stop-color="#e2e2e2"/><stop offset=".8" stop-color="#dedede"/></linearGradient><clipPath id="a" clipPathUnits="userSpaceOnUse"><path d="M0 0h48v48H0z"/></clipPath></defs><g clip-path="url(#a)"><path fill="url(#b)" d="M33.8 28.8c-.9-2.4-2.5-4.5-4.5-6-2.2-1.8-5-2.8-8.1-2.8l-1.5.1A11.3 11.3 0 1 1 37 30.6c-.9-.8-2-1.4-3.2-1.8z"/><path fill="#f5c23e" fill-rule="evenodd" d="M32.1 5.1v2.1c0 .6-.5 1.1-1.1 1.1-.6 0-1.1-.5-1.1-1.1V5.1c0-.6.5-1.1 1.1-1.1.6 0 1.1.5 1.1 1.1zm14.8 14.8c.6 0 1.1.5 1.1 1.1 0 .6-.5 1.1-1.1 1.1h-2.1c-.6 0-1.1-.5-1.1-1.1 0-.6.5-1.1 1.1-1.1zM22 10.5a1 1 0 0 1 0 1.5c-.5.4-1.1.4-1.5 0L19 10.5A1 1 0 0 1 19 9c.4-.4 1-.4 1.5 0zm21 21a1 1 0 0 1 0 1.5 1 1 0 0 1-1.5 0L40 31.5a1 1 0 0 1 0-1.5 1 1 0 0 1 1.5 0zM43 9a1 1 0 0 1 0 1.5L41.5 12a1 1 0 0 1-1.5 0 1 1 0 0 1 0-1.5L41.5 9A1 1 0 0 1 43 9z"/><path fill="url(#c)" d="M32.2 30.5c3.3.4 5.8 3.3 5.8 6.7 0 3.8-3 6.8-6.6 6.8H9.9A8.6 8.6 0 0 1 2 35.3c0-4.8 3.8-8.6 8.5-8.6l1.5.1c2.1-2.9 5.5-4.8 9.2-4.8 5.3 0 9.7 3.6 11 8.5z"/></g></svg>
